X: 560
T: Lady Carr Glynn's fancy
%R: jig
B: "Twenty Four Country Dances for the Year 1805", Tho. Preston, ed. p.240 32
F: http://folkopedia.efdss.org/images/archive/0/02/20121211105513%21Preston_24_1805.PDF
Z: 2014 John Chambers <jc:trillian.mit.edu>
N: The As in bars 9 and 13 look hand-written.
M: 6/8
L: 1/8
K: A
e |\
c2A AcA | ecA AB=c | B2G =GBG | dB=G Bcd |\
c2A AcA | ecA ABc | ded ABc | ecA A2 :|
|: d |\
[c2A2]a aga | efe ed^c | B2=g gfg | ded dcB |\
[c2A2]a aga | efe edc | ded Bcd | ecA A2 :|
%%begintext align
%% Hands across back aagain. lead down the
%% middle up again right and left.
%%endtext
